media/images/stenik.svg

<svg width="20" height="20" viewBox="0 0 20 20" fill="none" xmlns="http://www.w3.org/2000/svg">
<path d="M10 -0.00012207C11.381 -0.00012207 12.696 0.279878 13.8925 0.785878C15.089 1.29188 16.166 2.02388 17.071 2.92888C17.976 3.83388 18.708 4.91088 19.214 6.10738C19.72 7.30388 20 8.61938 20 9.99988C20 11.3809 19.72 12.6964 19.214 13.8924C18.708 15.0884 17.9755 16.1664 17.071 17.0709C16.166 17.9759 15.089 18.7074 13.8925 19.2139C12.696 19.7199 11.381 19.9999 10 19.9999C8.6195 19.9999 7.3035 19.7199 6.1075 19.2144C4.911 18.7079 3.834 17.9759 2.929 17.0714C2.024 16.1664 1.292 15.0889 0.7855 13.8929C0.28 12.6964 0 11.3809 0 9.99988C0 8.61938 0.28 7.30388 0.7855 6.10738C1.2915 4.91088 2.024 3.83388 2.929 2.92888C3.834 2.02388 4.911 1.29188 6.1075 0.785878C7.3035 0.279878 8.6195 -0.00012207 10 -0.00012207ZM14.54 13.6249C14.5555 13.4999 14.557 13.3734 14.544 13.2474C14.531 13.1214 14.504 12.9959 14.464 12.8734C14.4235 12.7509 14.37 12.6314 14.304 12.5159C14.238 12.4014 14.159 12.2914 14.068 12.1879C13.974 12.0814 13.8565 11.9694 13.7105 11.8619C13.5645 11.7544 13.3905 11.6504 13.1835 11.5604C12.976 11.4699 12.7355 11.3929 12.457 11.3384C12.1785 11.2844 11.862 11.2524 11.502 11.2524H11.331C10.3845 11.2524 9.5205 11.2459 8.739 11.2089C7.9575 11.1719 7.259 11.1029 6.644 10.9779C6.029 10.8529 5.497 10.6719 5.049 10.4089C4.601 10.1464 4.237 9.80238 3.9575 9.35138L2.7155 14.4639C3.1515 14.5644 3.555 14.6624 3.931 14.7584C4.307 14.8544 4.6555 14.9484 4.9805 15.0389C5.3055 15.1294 5.607 15.2164 5.8895 15.3004C6.172 15.3839 6.4355 15.4639 6.6845 15.5399C6.973 15.6279 7.2465 15.7109 7.513 15.7889C7.7795 15.8669 8.0385 15.9399 8.299 16.0074C8.5595 16.0749 8.8205 16.1364 9.0905 16.1914C9.361 16.2469 9.64 16.2964 9.936 16.3389C10.0175 16.3509 10.099 16.3619 10.18 16.3709C10.261 16.3799 10.3415 16.3869 10.4215 16.3934C10.5015 16.3994 10.5805 16.4039 10.6595 16.4064C10.738 16.4099 10.8155 16.4114 10.892 16.4114C11.4075 16.4114 11.88 16.3459 12.301 16.2214C12.7225 16.0964 13.093 15.9119 13.4065 15.6724C13.72 15.4329 13.9755 15.1394 14.167 14.7964C14.3585 14.4534 14.4845 14.0614 14.54 13.6249ZM16.0445 10.5589L17.285 5.56788C16.8355 5.46688 16.4215 5.36688 16.0375 5.26838C15.6535 5.16988 15.3 5.07338 14.972 4.97888C14.6435 4.88488 14.34 4.79388 14.0565 4.70638C13.773 4.61888 13.51 4.53488 13.2605 4.45588C12.987 4.36888 12.728 4.28638 12.475 4.20888C12.222 4.13188 11.9755 4.05988 11.727 3.99338C11.4785 3.92738 11.2285 3.86688 10.9685 3.81238C10.7085 3.75838 10.439 3.71038 10.151 3.66938C10.057 3.65638 9.9635 3.64488 9.87 3.63488C9.777 3.62488 9.684 3.61638 9.5925 3.60988C9.5005 3.60288 9.4095 3.59838 9.319 3.59488C9.2285 3.59138 9.139 3.58988 9.0505 3.58988C8.516 3.58988 8.0275 3.64888 7.5925 3.76238C7.157 3.87588 6.7755 4.04338 6.4545 4.26038C6.133 4.47788 5.872 4.74438 5.6785 5.05588C5.4845 5.36738 5.3585 5.72338 5.307 6.11938C5.2915 6.23938 5.291 6.36188 5.304 6.48488C5.317 6.60838 5.3445 6.73138 5.3845 6.85238C5.4245 6.97338 5.4775 7.09188 5.5425 7.20538C5.6075 7.31888 5.6845 7.42738 5.773 7.52788C5.8595 7.62638 5.967 7.72988 6.0985 7.82988C6.23 7.92988 6.3865 8.02538 6.571 8.10888C6.7555 8.19238 6.969 8.26338 7.2145 8.31388C7.46 8.36388 7.738 8.39338 8.052 8.39338C8.0765 8.39338 8.1015 8.39338 8.1265 8.39338C8.1515 8.39288 8.177 8.39238 8.2025 8.39138C8.2275 8.39088 8.2535 8.38938 8.2795 8.38838C8.305 8.38738 8.331 8.38538 8.357 8.38388C8.4855 8.37688 8.613 8.37038 8.739 8.36488C8.865 8.35938 8.9895 8.35488 9.113 8.35088C9.236 8.34738 9.3575 8.34438 9.477 8.34238C9.597 8.34038 9.715 8.33938 9.831 8.33938C10.6395 8.33938 11.373 8.38488 12.034 8.47588C12.695 8.56738 13.2825 8.70488 13.7985 8.88938C14.3145 9.07388 14.7585 9.30438 15.132 9.58288C15.5055 9.86138 15.81 10.1854 16.0445 10.5589Z" fill="black"/>
</svg>

<svg width="20" height="20" fill="none" xmlns="http://www.w3.org/2000/svg"><path d="M10 0a9.969 9.969 0 0 1 7.071 2.929A9.97 9.97 0 0 1 20 10a9.967 9.967 0 0 1-2.929 7.07A9.969 9.969 0 0 1 10 20a9.977 9.977 0 0 1-7.071-2.928 10.028 10.028 0 0 1-2.143-3.178A9.98 9.98 0 0 1 0 10a9.98 9.98 0 0 1 2.929-7.071A9.969 9.969 0 0 1 10 0zm4.54 13.625a1.672 1.672 0 0 0-.076-.752 1.961 1.961 0 0 0-.396-.685 2.273 2.273 0 0 0-.357-.326 2.702 2.702 0 0 0-.527-.302 3.485 3.485 0 0 0-.727-.222 5.01 5.01 0 0 0-.955-.086h-.171c-.947 0-1.81-.006-2.592-.043s-1.48-.106-2.095-.231c-.615-.125-1.147-.306-1.595-.57a3.095 3.095 0 0 1-1.092-1.057l-1.241 5.113a53.383 53.383 0 0 1 2.264.575c.325.09.627.177.91.261.282.084.546.164.795.24.288.088.562.17.828.249.266.078.526.15.786.218a15.366 15.366 0 0 0 1.637.332 6.939 6.939 0 0 0 .723.067c.079.004.156.005.233.005.516 0 .988-.065 1.409-.19.421-.125.792-.31 1.105-.549.314-.24.57-.533.761-.876.191-.343.318-.735.373-1.171zm1.505-3.066 1.24-4.991a42.606 42.606 0 0 1-2.313-.59 45.97 45.97 0 0 1-.915-.272c-.284-.087-.547-.171-.796-.25-.274-.087-.533-.17-.786-.247a22.84 22.84 0 0 0-.748-.216 13.019 13.019 0 0 0-1.857-.359 7.722 7.722 0 0 0-.82-.044c-.534 0-1.023.059-1.458.172a3.676 3.676 0 0 0-1.137.498 2.647 2.647 0 0 0-.777.796c-.194.311-.32.667-.371 1.063-.016.12-.016.243-.003.366.013.123.04.246.08.367a1.931 1.931 0 0 0 .389.676 2.301 2.301 0 0 0 .798.581c.184.083.398.154.644.205.245.05.523.08.837.08h.075l.075-.003.078-.003c.025 0 .051-.003.077-.004a35.49 35.49 0 0 1 .756-.033 31.164 31.164 0 0 1 .718-.012c.809 0 1.542.046 2.203.137a8.857 8.857 0 0 1 1.764.413c.517.185.96.415 1.334.694.373.278.678.602.912.976z" fill="#000"/></svg>
